X: 370
P: Longways for as many as will
M: 6/4
L: 1/8
K: Dm
[|\
a4d2 (d3c/d/)e2 | ^c6 A4A2 | d4c2 c4B2 | A6 F4A2 |\
e2 |\
e4f2 f4e2 | d2e2c2 B4A2 | A4G2 G4F2 | F6 f3ef2 |\
g4e2 ^c3de2 | f4e2 d3c=B2 | (c3B/c/)d2 =B4A2 | A6- A4a2 |
b4g2 e3fg2 | a3ba2 g3fe2 | f4f2 (g3f/g/)a2 | b6- b4(gf/g/) |\
a4e2 ^c3de2 | f4e2 ^c3BA2 | (f3e/f/)g2 e4d2 | d6- d4 |]

